brandFactory_export/3.Masa/Marcador_3Masa.svg

<?xml version="1.0" encoding="UTF-8"?>
<svg width="24px" height="24px" viewBox="0 0 24 24" version="1.1" xmlns="http://www.w3.org/2000/svg" xmlns:xlink="http://www.w3.org/1999/xlink">
    <title>3.Masa/Marcador_3Masa</title>
    <g id="Symbols" stroke="none" stroke-width="1" fill="none" fill-rule="evenodd">
        <g id="3.Masa/Marcador_3Masa" fill="#5CB615" fill-rule="nonzero">
            <path d="M19.7731092,1.54285714 L19.7731092,22.0739496 C19.7731092,22.6689076 19.4470588,23.2033613 18.9058824,23.4655462 C18.6840336,23.5663866 18.4453782,23.6268908 18.2134454,23.6268908 C17.8773109,23.6268908 17.5411765,23.5159664 17.2655462,23.3042017 L12.7882353,18.9008403 C12.5831933,18.692437 12.2369748,18.692437 12.0151261,18.9008403 L7.57815126,23.2638655 C7.04705882,23.6672269 6.42521008,23.7277311 5.88403361,23.4655462 C5.34285714,23.2033613 5.00672269,22.6689076 5.00672269,22.0739496 L5.00672269,1.54285714 C5.00672269,0.695798319 5.7092437,0 6.56638655,0 L18.210084,0 C19.0806723,0 19.7731092,0.695798319 19.7731092,1.54285714" id="Path"></path>
        </g>
    </g>
</svg>

<svg width="24" height="24" viewBox="0 0 24 24" xmlns="http://www.w3.org/2000/svg"><path d="M19.773 1.543v20.53a1.53 1.53 0 01-.867 1.393c-.222.1-.46.16-.693.16a1.56 1.56 0 01-.947-.322l-4.478-4.403a.556.556 0 00-.773 0l-4.437 4.363c-.53.403-1.153.464-1.694.202a1.54 1.54 0 01-.877-1.392V1.543C5.007.696 5.709 0 6.567 0H18.21c.87 0 1.563.696 1.563 1.543" fill="#5CB615" fill-rule="nonzero"/></svg>
